X:106
T:Green Fields Of Rossbeigh, The
R:reel
S:https://thesession.org/tunes/322
M:4/4
L:1/8
Z:Jdharv
K:Edorian
BE(3EDE BAFA|ABde fded|BE(3EDE BAFA|(3BcB AF E2dc|
BE(3EDE BAFA|ABde fded|BE(3EDE BAFA|BFAF E2FA:||
(3Bcd ef g2fe|dB(3BAB dBAd|(3Bcd ef gfge|dBAF E2ef|
gfga gfeg|fefg fedB|ABde fgfe|dBAF E2FA:||

